X:2
T:Monymusk
C:Trad
R:Strathspey
M:4/4
L:1/8
K:D
[|: [2 a/] | {gef}e>A {gcd}c<{e}A {g}c/e/{g}A {Gdc}d>f | {gef}e>d {gcd}c<a B/{d}B/{e}B {Gdc}d>f |  {gef}e>A {gcd}c<{e}A {g}c<e {A}e>a | f/g/a B/c/d {gcd}c<{e}A {GAG}A3/2 :|]
[|: e/ | {ag}a>e {gcd}c>a e<a {cd}c>e | {ag}a>e {Gdc}d>a {cd}c<a {BG}B>e | {ag}a>e {gcd}c>a e<a {cd}c>a | f/g/a B/c/d {gcd}c<{e}A {GAG}A3/2 :|]
[|: a/ | {AGAG}A2 {gcd}c<{e}A {g}c/e/{g}A {Gdc}d>f |{gAGAG}A2 {gcd}c<a B/{d}B/{e}B {Gdc}d>f |{gAGAG}A2 {gcd}c<{e}A {g}c<e {A}e>a | f/g/a B/c/d {gcd}c<{e}A {GAG}A3/2 :|]
[|: e/ | {ag}a2 {ef}e>a {cd}c<a e/f/g | {ag}a2 {ef}e>a {cd}c<a {BG}B>e | {ag}a2 {ef}e>a {cd}c<a {ef}e>a | f/g/a B/c/d {gcd}c<{e}A [1 {GAG}A3/2 [2 {GAG}A2] :|]

